img/svgicons/plus.svg

<svg width="30" height="30" viewBox="0 0 30 30" fill="none" xmlns="http://www.w3.org/2000/svg">
<rect width="30" height="30" rx="15" fill="#C7C7C7"/>
<path d="M14.3401 21.3409C14.3401 21.7808 14.7261 22.1758 15.1839 22.1758C15.6462 22.1713 16.0322 21.7763 16.0322 21.3454V16.0311H21.3376C21.7864 16.0311 22.1724 15.6451 22.1724 15.1872C22.168 14.7249 21.7864 14.3434 21.3376 14.3434H16.0322L16.0277 9.03354C16.0277 8.58469 15.6462 8.1942 15.1839 8.19869C14.7261 8.19869 14.3401 8.58469 14.3401 9.03354L14.3401 14.3389L9.03021 14.3434C8.59482 14.3389 8.19086 14.7249 8.19535 15.1872C8.19535 15.6451 8.59482 16.0356 9.03021 16.0311L14.3401 16.0356V21.3409Z" fill="black"/>
</svg>

<svg width="30" height="30" fill="none" xmlns="http://www.w3.org/2000/svg"><rect width="30" height="30" rx="15" fill="#C7C7C7"/><path d="M14.34 21.34c0 .44.386.836.844.836.462-.005.848-.4.848-.83V16.03h5.306a.853.853 0 00.834-.844.853.853 0 00-.834-.844h-5.306l-.004-5.31a.847.847 0 00-.844-.834.853.853 0 00-.844.835v5.305l-5.31.004a.853.853 0 00-.835.844c0 .458.4.849.835.844l5.31.005v5.305z" fill="#000"/></svg>
